icons/1_Primary/CyberPanel.svg

<svg width="1024" height="1024" fill="none" xmlns="http://www.w3.org/2000/svg"><g clip-path="url(#a)"><path d="M512 1024c282.77 0 512-229.23 512-512S794.77 0 512 0 0 229.23 0 512s229.23 512 512 512Z" fill="#F8C18C"/><path d="M512 375.94c8.389.011 16.758.805 25 2.37l-91.06-91.06a11.228 11.228 0 0 1-2-2.84L232.82 495.49a23.45 23.45 0 0 0 0 33.07l35.08 35c.311-.409.645-.8 1-1.17l147-146.93a135.33 135.33 0 0 1 96.1-39.52Zm45.64-10.7 26.71-20.5c5.24-4.14 10.59-6.12 16.37-6.12a23.448 23.448 0 0 1 20.74 12.65c.073.142.137.289.19.44 2.36 4.91 5 14.88-3.69 26.2-.043.08-.097.154-.16.22l-20.84 26.44 11.72 11.74a137.537 137.537 0 0 1 37.21 121.21l92.36-92.4a8.734 8.734 0 0 1 1.44-1.13L528.53 232.85a23.389 23.389 0 0 0-16.535-6.851 23.388 23.388 0 0 0-16.535 6.851l-35.57 35.59a9.474 9.474 0 0 1 2.92 2l94.83 94.8Zm-91.84 294-26.32 20.23c-3.72 2.78-8.92 6-16.34 6H423a5.95 5.95 0 0 1-1.17-.08 23.474 23.474 0 0 1-19.16-12.29c-.07-.18-.19-.39-.25-.56-4.17-8.66-2.86-18.1 3.75-26.65l20.4-25.89L414 607.41a135.33 135.33 0 0 1-36.26-120.13l-92 92c-.37.371-.776.706-1.21 1l210.93 210.89a23.422 23.422 0 0 0 33.07 0L563.65 756a11.993 11.993 0 0 1-3.49-2.39l-94.36-94.37Zm325.4-163.71-34.9-34.9c-.35.49-.734.955-1.15 1.39L607.82 609.24a135.509 135.509 0 0 1-96.11 39.59 138.053 138.053 0 0 1-25-2.37L577 736.78a11.87 11.87 0 0 1 2.39 3.49l211.78-211.71a23.448 23.448 0 0 0 .01-33.07l.02.04Zm-188.41-129.2L516.33 476l3.29 4.49c4.51 6.16 18.63 26.53 45.81 66.16 1.62 2.37 2.16 10.31-2.34 13.72L428 664.17c-2.13 1.59-3.37 2.15-4.85 2.15 0 0 0-.09-.06-.09s0 .09-.06.09a4.366 4.366 0 0 1-3.38-2c-.45-.91-1.38-2.84 1.54-6.62l86.27-109.49-48.88-70.32a10.558 10.558 0 0 1 2.31-14.22L596.1 359.74c2.29-1.8 3.58-2.07 4.59-2.07a4.297 4.297 0 0 1 3.72 2.25c.9 1.95.45 3.69-1.62 6.41Z" fill="#fff"/></g><defs><clipPath id="a"><path fill="#fff" d="M0 0h1024v1024H0z"/></clipPath></defs></svg>

<svg width="1024" height="1024" viewBox="0 0 1024 1024" fill="none" xmlns="http://www.w3.org/2000/svg">
<g clip-path="url(#clip0_2_1956)">
<path d="M512 1024C794.77 1024 1024 794.77 1024 512C1024 229.23 794.77 0 512 0C229.23 0 0 229.23 0 512C0 794.77 229.23 1024 512 1024Z" fill="#F8C18C"/>
<path d="M512 375.94C520.389 375.951 528.758 376.745 537 378.31L445.94 287.25C445.13 286.413 444.455 285.454 443.94 284.41L232.82 495.49C228.451 499.884 225.998 505.828 225.998 512.025C225.998 518.221 228.451 524.166 232.82 528.56L267.9 563.56C268.211 563.151 268.545 562.76 268.9 562.39L415.9 415.46C428.525 402.866 443.514 392.892 460.006 386.11C476.498 379.327 494.168 375.871 512 375.94ZM557.64 365.24L584.35 344.74C589.59 340.6 594.94 338.62 600.72 338.62C605.002 338.633 609.199 339.82 612.856 342.05C616.512 344.28 619.488 347.468 621.46 351.27C621.533 351.412 621.597 351.559 621.65 351.71C624.01 356.62 626.65 366.59 617.96 377.91C617.917 377.99 617.863 378.064 617.8 378.13L596.96 404.57L608.68 416.31C624.151 432.046 635.609 451.275 642.085 472.371C648.562 493.468 649.867 515.813 645.89 537.52L738.25 445.12C738.689 444.694 739.172 444.315 739.69 443.99L528.53 232.85C526.359 230.678 523.781 228.955 520.944 227.779C518.107 226.604 515.066 225.999 511.995 225.999C508.924 225.999 505.883 226.604 503.046 227.779C500.209 228.955 497.631 230.678 495.46 232.85L459.89 268.44C460.98 268.917 461.971 269.596 462.81 270.44L557.64 365.24ZM465.8 659.24L439.48 679.47C435.76 682.25 430.56 685.47 423.14 685.47H423C422.608 685.482 422.216 685.455 421.83 685.39C417.856 685.135 414.012 683.873 410.66 681.723C407.308 679.573 404.559 676.605 402.67 673.1C402.6 672.92 402.48 672.71 402.42 672.54C398.25 663.88 399.56 654.44 406.17 645.89L426.57 620L414 607.41C398.706 591.801 387.419 572.721 381.105 551.801C374.79 530.881 373.636 508.743 377.74 487.28L285.74 579.28C285.37 579.651 284.964 579.986 284.53 580.28L495.46 791.17C499.85 795.546 505.796 798.004 511.995 798.004C518.194 798.004 524.14 795.546 528.53 791.17L563.65 756C562.354 755.416 561.172 754.607 560.16 753.61L465.8 659.24ZM791.2 495.53L756.3 460.63C755.95 461.12 755.566 461.585 755.15 462.02L607.82 609.24C595.194 621.84 580.205 631.823 563.712 638.617C547.219 645.411 529.547 648.882 511.71 648.83C503.322 648.801 494.954 648.008 486.71 646.46L577 736.78C577.999 737.791 578.809 738.973 579.39 740.27L791.17 528.56C795.54 524.167 797.995 518.223 797.997 512.027C797.999 505.83 795.548 499.885 791.18 495.49L791.2 495.53ZM602.79 366.33L516.33 476L519.62 480.49C524.13 486.65 538.25 507.02 565.43 546.65C567.05 549.02 567.59 556.96 563.09 560.37L428 664.17C425.87 665.76 424.63 666.32 423.15 666.32C423.15 666.32 423.15 666.23 423.09 666.23C423.03 666.23 423.09 666.32 423.03 666.32C422.349 666.274 421.689 666.069 421.102 665.722C420.515 665.374 420.018 664.894 419.65 664.32C419.2 663.41 418.27 661.48 421.19 657.7L507.46 548.21L458.58 477.89C457.093 475.667 456.505 472.964 456.933 470.325C457.362 467.685 458.776 465.307 460.89 463.67L596.1 359.74C598.39 357.94 599.68 357.67 600.69 357.67C601.454 357.68 602.201 357.895 602.855 358.29C603.509 358.685 604.046 359.248 604.41 359.92C605.31 361.87 604.86 363.61 602.79 366.33Z" fill="white"/>
</g>
<defs>
<clipPath id="clip0_2_1956">
<rect width="1024" height="1024" fill="white"/>
</clipPath>
</defs>
</svg>
